X: 28835
T: My Sweetheart Jane
R: reel
M: 4/4
K: Gmajor
|:D~G3 ~A2 dc|AB (3cBA dBcA|D~G3 ~A2 de|1 fdcA AGAF:|2 fdcA AGBc||
fggf ~g2 ag|fdde fgaf|dggf ~g2 ag|fdcA dBcA|
dggf ~g2 ag|fdde fg ~a2|agag fdeg|fdcA AG GF||

